icons/spotify.svg

<svg width="32" height="32" viewBox="0 0 32 32" fill="none" xmlns="http://www.w3.org/2000/svg">
<path fill-rule="evenodd" clip-rule="evenodd" d="M3.36627 28.6337C0.910867 26.1783 0 22.1783 0 16C0 9.82167 0.910867 5.82167 3.36627 3.36627C5.82167 0.910867 9.82167 0 16 0C22.1783 0 26.1783 0.910867 28.6337 3.36627C31.0891 5.82167 32 9.82167 32 16C32 22.1783 31.0891 26.1783 28.6337 28.6337C26.1783 31.0891 22.1783 32 16 32C9.82167 32 5.82167 31.0891 3.36627 28.6337Z" fill="#181413"/>
<path fill-rule="evenodd" clip-rule="evenodd" d="M16 28.6666C22.9956 28.6666 28.6667 22.9956 28.6667 16C28.6667 9.00437 22.9956 3.33331 16 3.33331C9.0044 3.33331 3.33334 9.00437 3.33334 16C3.33334 22.9956 9.0044 28.6666 16 28.6666Z" fill="#1ED760"/>
<path fill-rule="evenodd" clip-rule="evenodd" d="M9.24443 19.1048C14.0036 18.0173 18.1693 18.4531 21.5474 20.5175C21.9197 20.745 22.037 21.2313 21.8095 21.6035C21.582 21.9758 21.0958 22.0932 20.7235 21.8657C17.7884 20.072 14.0714 19.6225 9.59641 20.6451C9.17107 20.7423 8.74747 20.4763 8.65027 20.051C8.55308 19.6256 8.81909 19.202 9.24443 19.1048Z" fill="#181413"/>
<path fill-rule="evenodd" clip-rule="evenodd" d="M8.80524 15.114C13.3738 13.7275 19.1231 14.3933 23.034 16.797C23.4982 17.0824 23.6432 17.69 23.3579 18.1543C23.0726 18.6185 22.4649 18.7636 22.0007 18.4782C18.598 16.3869 13.4376 15.7703 9.37833 17.0023C8.8569 17.1606 8.3059 16.8661 8.14765 16.3447C7.98939 15.8233 8.2838 15.2723 8.80524 15.114Z" fill="#181413"/>
<path fill-rule="evenodd" clip-rule="evenodd" d="M16.2826 10.1203C19.2361 10.3569 22.2993 11.1002 24.7015 12.5265C25.2634 12.8601 25.4485 13.5861 25.1149 14.1481C24.7812 14.71 24.0552 14.8951 23.4932 14.5615C21.5037 13.3802 18.8278 12.6984 16.0936 12.4794C13.3631 12.2606 10.6984 12.5134 8.77705 13.0967C8.1517 13.2866 7.49084 12.9336 7.30098 12.3082C7.11112 11.6829 7.46416 11.022 8.08951 10.8321C10.3541 10.1446 13.3256 9.88339 16.2826 10.1203Z" fill="#181413"/>
</svg>

<svg xmlns="http://www.w3.org/2000/svg" width="32" height="32" fill="none" viewBox="0 0 32 32">
  <path fill="#181413" fill-rule="evenodd" d="M3.366 28.634C.911 26.178 0 22.178 0 16S.91 5.822 3.366 3.366C5.822.911 9.822 0 16 0s10.178.91 12.634 3.366C31.089 5.822 32 9.822 32 16s-.91 10.178-3.366 12.634C26.178 31.089 22.178 32 16 32s-10.178-.91-12.634-3.366Z" clip-rule="evenodd"/>
  <path fill="#1ED760" fill-rule="evenodd" d="M16 28.667c6.996 0 12.667-5.672 12.667-12.667 0-6.996-5.671-12.667-12.667-12.667C9.004 3.333 3.333 9.004 3.333 16c0 6.995 5.671 12.667 12.667 12.667Z" clip-rule="evenodd"/>
  <path fill="#181413" fill-rule="evenodd" d="M9.244 19.105c4.76-1.088 8.925-.652 12.303 1.413a.79.79 0 0 1-.823 1.348c-2.936-1.794-6.653-2.243-11.128-1.22a.79.79 0 0 1-.352-1.541Zm-.439-3.991c4.569-1.387 10.318-.72 14.229 1.683a.987.987 0 0 1-1.033 1.681c-3.403-2.091-8.563-2.708-12.623-1.476a.987.987 0 0 1-.573-1.888Zm7.478-4.994c2.953.237 6.016.98 8.418 2.406a1.184 1.184 0 0 1-1.208 2.035c-1.99-1.18-4.665-1.863-7.4-2.082-2.73-.218-5.395.034-7.316.618a1.183 1.183 0 1 1-.687-2.265c2.264-.688 5.236-.949 8.193-.712Z" clip-rule="evenodd"/>
</svg>
